X:1
T:Kukacka Kuka
C:Sammlung Josef Reszny 
A:Suedboehmen
Z:abc transcription Simon Wascher
F:http://simonwascher.info/
M:3/4
L:1/8
K:Gm
G2G2G2 | d2Hd4 | c2BAB2 | c2Hc4 |
B2A2G2 | A4A2 | HG6 | G2G2G2 |
d2Hd4 | c2BAB2 | c2Hc4 | G2F2G2 |
A2B2HA2 | G2F2G2 | A4A2 | HG6 |]
